(.../Documents/src/3.6.0.2/pcb-gcode.ulp)
(Copyright 2005 - 2012 by John Johnson)
(See readme.txt for licensing terms.)
(This file generated from the board:)
(.../docs/examples/04151_lcdi2c.brd)
(Current profile is .../pcbgcode-work/profiles/mach.pp  )
(This file generated 12/28/12 11:20 PM)
(Settings from pcb-machine.h)
(  Tool Size)
(0.0050  )
(Z Axis Settings)
(  High     Up        Down     Drill)
(0.5000  	0.1000  	-0.0070 	-0.0320 )
(spindle on time = 3.0000)
(milling depth = -0.0100)
(text depth = -0.0050)
(tool change at 0.5000  0.6000  1.0000  )
(feed rate xy = F20    )
(feed rate z  = F10    )
(Settings from pcb-defaults.h)
(isolate min = 0.0010)
(isolate max = 0.0200)
(isolate step = 0.0050)
(Generated bottom outlines, bottom drill, )
(Unit of measure: inch)
(Inch Mode)
G20
(Absolute Coordinates)
G90
M03
G04 P3.000000
G00 Z0.1000  
G00 X-2.5800 Y0.1407  
G01 Z-0.0050 F10    
G01 X-2.6701 Y0.1407  F20    
G01 X-2.6926 Y0.1632  
G01 X-2.6926 Y0.2082  
G01 X-2.6701 Y0.2308  
G01 X-2.5800 Y0.2308  
G01 X-2.5575 Y0.2082  
G01 X-2.5575 Y0.1632  
G01 X-2.5800 Y0.1407  
G01 X-2.6701 Y0.2308  
G00 Z0.1000  
G00 X-2.5575 Y0.3463  
G01 Z-0.0050 F10    
G01 X-2.6926 Y0.3463  F20    
G01 X-2.6251 Y0.2788  
G01 X-2.6251 Y0.3689  
G00 Z0.1000  
G00 X-2.6476 Y0.4169  
G01 Z-0.0050 F10    
G01 X-2.6926 Y0.4619  F20    
G01 X-2.5575 Y0.4619  
G00 Z0.1000  
G00 X-2.5575 Y0.4169  
G01 Z-0.0050 F10    
G01 X-2.5575 Y0.5070  F20    
G00 Z0.1000  
G00 X-2.6926 Y0.6451  
G01 Z-0.0050 F10    
G01 X-2.6926 Y0.5550  F20    
G01 X-2.6251 Y0.5550  
G01 X-2.6476 Y0.6001  
G01 X-2.6476 Y0.6226  
G01 X-2.6251 Y0.6451  
G01 X-2.5800 Y0.6451  
G01 X-2.5575 Y0.6226  
G01 X-2.5575 Y0.5775  
G01 X-2.5800 Y0.5550  
G00 Z0.1000  
G00 X-2.6476 Y0.6931  
G01 Z-0.0050 F10    
G01 X-2.6926 Y0.7382  F20    
G01 X-2.5575 Y0.7382  
G00 Z0.1000  
G00 X-2.5575 Y0.6931  
G01 Z-0.0050 F10    
G01 X-2.5575 Y0.7832  F20    
G00 Z0.1000  
G00 X-2.5575 Y0.9694  
G01 Z-0.0050 F10    
G01 X-2.6476 Y0.9694  F20    
G01 X-2.6926 Y1.0144  
G01 X-2.6476 Y1.0594  
G01 X-2.5575 Y1.0594  
G00 Z0.1000  
G00 X-2.6251 Y0.9694  
G01 Z-0.0050 F10    
G01 X-2.6251 Y1.0594  F20    
G00 Z0.5000  
M05
M02
